src/assets/icons/qrcode.svg

<svg width="14" height="14" viewBox="0 0 14 14" fill="none" xmlns="http://www.w3.org/2000/svg">
<g id="qrcode">
<g clip-path="url(#clip0_156_4584)">
<path id="Vector" fill-rule="evenodd" clip-rule="evenodd" d="M0 0H0.677419H5.64516H6.32258V0.677419V5.64516V6.32258H5.64516H0.677419H0V5.64516V0.677419V0ZM1.35484 1.35484V4.96774H4.96774V1.35484H1.35484ZM7.67742 0H8.35484H13.3226H14V0.677419V5.64516V6.32258H13.3226H8.35484H7.67742V5.64516V0.677419V0ZM9.03226 1.35484V4.96774H12.6452V1.35484H9.03226ZM0.677419 7.67742H0V8.35484V13.3226V14H0.677419H5.64516H6.32258V13.3226V8.35484V7.67742H5.64516H0.677419ZM1.35484 12.6452V9.03226H4.96774V12.6452H1.35484ZM9.25806 7.67742H7.67742V9.25806H9.25806V10.8387H7.67742V12.4194H9.25806V14H10.8387V12.4194H12.4194V14H14V12.4194H12.4194V10.8387H14V9.25806H12.4194V7.67742H10.8387V9.25806H9.25806V7.67742ZM10.8387 10.8387H12.4194V9.25806H10.8387V10.8387ZM10.8387 10.8387H9.25806V12.4194H10.8387V10.8387Z" fill="black"/>
</g>
</g>
<defs>
<clipPath id="clip0_156_4584">
<rect width="14" height="14" fill="white"/>
</clipPath>
</defs>
</svg>

<svg xmlns="http://www.w3.org/2000/svg" fill="none" viewBox="0 0 14 14"><g clip-path="url(#a)"><path fill="#000" fill-rule="evenodd" d="M0 0h6.323v6.323H0V0m1.355 1.355v3.613h3.613V1.355zM7.677 0H14v6.323H7.677V0m1.355 1.355v3.613h3.613V1.355zM.677 7.677H0V14h6.323V7.677H.677m.678 4.968V9.032h3.613v3.613zm7.903-4.968h-1.58v1.581h1.58v1.58h-1.58v1.581h1.58V14h1.58v-1.58h1.581V14H14v-1.58h-1.58v-1.581H14v-1.58h-1.58V7.676h-1.581v1.581h-1.58zm1.58 3.162h1.581v-1.58h-1.58zm0 0h-1.58v1.58h1.58z" clip-rule="evenodd"/></g><defs><clipPath id="a"><path fill="#fff" d="M0 0h14v14H0z"/></clipPath></defs></svg>
